src/helpers/heroicons/solid/arrow-trending-up.svg

<svg width="24" height="24" viewBox="0 0 24 24" fill="none" xmlns="http://www.w3.org/2000/svg">
<path fill-rule="evenodd" clip-rule="evenodd" d="M15.2194 6.26756C15.3679 5.88086 15.8017 5.68771 16.1884 5.83615L22.1297 8.11679C22.3154 8.18807 22.4651 8.33021 22.546 8.51192C22.627 8.69364 22.6324 8.90005 22.5611 9.08575L20.2804 15.027C20.132 15.4137 19.6982 15.6069 19.3115 15.4584C18.9248 15.31 18.7316 14.8762 18.8801 14.4895L20.5118 10.2386L19.4253 10.7223C16.9721 11.8146 15.1036 13.6754 13.975 15.8959C13.8662 16.11 13.6614 16.2591 13.4241 16.2968C13.1869 16.3345 12.946 16.2563 12.7761 16.0864L9 12.3103L2.78033 18.53C2.48744 18.8229 2.01256 18.8229 1.71967 18.53C1.42678 18.2371 1.42678 17.7622 1.71967 17.4693L8.46967 10.7193C8.61032 10.5787 8.80109 10.4996 9 10.4996C9.19891 10.4996 9.38968 10.5787 9.53033 10.7193L13.1363 14.3253C14.4369 12.2042 16.3711 10.4402 18.8152 9.35203L19.9017 8.86828L15.6508 7.23652C15.2641 7.08808 15.071 6.65426 15.2194 6.26756Z" />
</svg>

<svg xmlns="http://www.w3.org/2000/svg" viewBox="0 0 24 24" fill="currentColor" aria-hidden="true" data-slot="icon">
  <path fill-rule="evenodd" d="M15.22 6.268a.75.75 0 0 1 .968-.431l5.942 2.28a.75.75 0 0 1 .431.97l-2.28 5.94a.75.75 0 1 1-1.4-.537l1.63-4.251-1.086.484a11.2 11.2 0 0 0-5.45 5.173.75.75 0 0 1-1.199.19L9 12.312l-6.22 6.22a.75.75 0 0 1-1.06-1.061l6.75-6.75a.75.75 0 0 1 1.06 0l3.606 3.606a12.695 12.695 0 0 1 5.68-4.974l1.086-.483-4.251-1.632a.75.75 0 0 1-.432-.97Z" clip-rule="evenodd"/>
</svg>
